X:1
T: The Gates of Edinburgh
C:
R:Reel
Q: 232
K:F
M:4/4
L:1/8
|:F2|CD FG A2 f2|cA GF G2 FD|F2 f2 c2 AG|F2 D4 G2|
A2 Ac A2 Ac|fc AF G2 FD|F2 f2 c2 AG|F2 D4 c2|
fe fa fa gf|gf ga gb ag|fe fg fg af|gf ed c2 fg|
ag fa gf eg|fd ec f2 fg|ag fe dc AG|F2 D4:|
